icons/city-11.svg

<svg xmlns="http://www.w3.org/2000/svg" width="11.0016" height="11.0016" viewBox="0 0 11.0016 11.0016">
  <title>city-11</title>
  <path d="M9.7514,3h-0.75V1.25A0.25,0.25,0,0,0,8.7513,1h-0.5a0.25,0.25,0,0,0-.25.25V3h-0.75a0.25,0.25,0,0,0-.25.25V7.001H5.2518a0.251,0.251,0,0,0-.251.251v2.5a0.251,0.251,0,0,0,.251.249H9.7524a0.25,0.25,0,0,0,.249-0.25V3.25A0.25,0.25,0,0,0,9.7514,3ZM6.0009,8.0012h1v1h-1v-1Zm3,1h-1v-1h1v1Zm0-2h-1v-1h1v1Zm0-2h-1v-1h1v1Zm-3-3.7505A0.25,0.25,0,0,0,5.7508,1H3.25A0.25,0.25,0,0,0,3,1.25V2H2.25A0.25,0.25,0,0,0,2,2.25V3H1.25A0.25,0.25,0,0,0,1,3.25V9.7514a0.25,0.25,0,0,0,.25.25h2.75V6.0009h2V1.25ZM3,9.0013H2v-1H3v1Zm0-2H2v-1H3v1Zm0-2H2v-1H3v1Zm2,0h-1v-1h1v1Zm0-2h-1V2h1V3Z"/>
</svg>

<svg id="Layer_1" data-name="Layer 1" xmlns="http://www.w3.org/2000/svg" width="11" height="11" viewBox="0 0 11 11">
  <title>city-11</title>
  <path d="M9.75,3H9V1.25A.25.25,0,0,0,8.75,1h-.5A.25.25,0,0,0,8,1.25V3H7.25A.25.25,0,0,0,7,3.25V7H5.251A.251.251,0,0,0,5,7.251v2.5A.251.251,0,0,0,5.251,10h4.5A.25.25,0,0,0,10,9.75V3.25A.25.25,0,0,0,9.75,3ZM6,8H7V9H6ZM9,9H8V8H9ZM9,7H8V6H9ZM9,5H8V4H9ZM6,1.25A.25.25,0,0,0,5.75,1H3.25A.25.25,0,0,0,3,1.25V2H2.25A.25.25,0,0,0,2,2.25V3H1.25A.25.25,0,0,0,1,3.25v6.5a.25.25,0,0,0,.25.25H4V6H6ZM3,9H2V8H3ZM3,7H2V6H3ZM3,5H2V4H3ZM5,5H4V4H5ZM5,3H4V2H5Z"/>
</svg>
